assets/sonr-icons/btc-fill.svg

<svg xmlns="http://www.w3.org/2000/svg" width="24" height="24" fill="none"><path fill="currentColor" d="M12 22c5.523 0 10-4.477 10-10S17.523 2 12 2 2 6.477 2 12s4.477 10 10 10m3.277-14.756c1.75.603 3.031 1.507 2.779 3.188-.182 1.231-.864 1.827-1.77 2.035 1.244.647 1.877 1.641 1.273 3.362-.748 2.138-2.526 2.319-4.89 1.871l-.574 2.299-1.386-.345.566-2.268q-.538-.134-1.106-.287l-.568 2.278-1.385-.345.574-2.303-.412-.107q-.285-.075-.575-.149l-1.804-.45.688-1.586s1.021.271 1.007.251c.393.097.567-.159.636-.329l.906-3.634.147.036a1 1 0 0 0-.145-.046l.646-2.595c.017-.296-.084-.667-.646-.807.022-.014-1.007-.25-1.007-.25L8.6 5.582l1.912.477-.002.007c.268.068.544.13.825.195l.061.014.568-2.277 1.386.346-.557 2.232.023.005c.365.083.731.167 1.087.257l.553-2.218 1.386.345-.568 2.278.001-.001zm-4.385 8.258c1.132.299 3.604.952 3.996-.628.404-1.614-1.993-2.153-3.163-2.415a12 12 0 0 1-.342-.08l-.762 3.052zm1.068-4.46c.943.252 2.999.801 3.357-.635.366-1.468-1.633-1.91-2.609-2.126l-.287-.065-.69 2.767.228.06z"/></svg>

<svg xmlns="http://www.w3.org/2000/svg" width="24" height="24" fill="none" viewBox="0 0 24 24"><path fill="#000" d="M12 22C17.523 22 22 17.523 22 12C22 6.477 17.523 2 12 2C6.477 2 2 6.477 2 12C2 17.523 6.477 22 12 22ZM15.277 7.244C17.027 7.847 18.308 8.751 18.056 10.432C17.874 11.663 17.192 12.259 16.286 12.467C17.53 13.114 18.163 14.108 17.559 15.829C16.811 17.967 15.033 18.148 12.669 17.7L12.095 19.999L10.709 19.654L11.275 17.386C10.916 17.296 10.548 17.202 10.169 17.099L9.601 19.377L8.216 19.032L8.79 16.729C8.654 16.694 8.516 16.658 8.378 16.622C8.188 16.573 7.997 16.522 7.803 16.473L5.999 16.023L6.687 14.437C6.687 14.437 7.708 14.708 7.694 14.688C8.087 14.785 8.261 14.529 8.33 14.359L9.236 10.725L9.383 10.761C9.327 10.739 9.277 10.725 9.238 10.715L9.884 8.12C9.901 7.824 9.8 7.453 9.238 7.313C9.26 7.299 8.231 7.063 8.231 7.063L8.6 5.582L10.512 6.059L10.51 6.066C10.778 6.134 11.054 6.196 11.335 6.261C11.355 6.266 11.375 6.27 11.396 6.275L11.964 3.998L13.35 4.344L12.793 6.576L12.816 6.581C13.181 6.664 13.547 6.748 13.903 6.838L14.456 4.62L15.842 4.965L15.274 7.243L15.275 7.242L15.277 7.244ZM10.892 15.502C12.024 15.801 14.496 16.454 14.888 14.874C15.292 13.26 12.895 12.721 11.725 12.459C11.594 12.43 11.478 12.403 11.383 12.379L10.621 15.431C10.699 15.451 10.79 15.475 10.892 15.502ZM11.96 11.042C12.903 11.294 14.959 11.843 15.317 10.407C15.683 8.939 13.684 8.497 12.708 8.281C12.598 8.257 12.501 8.235 12.421 8.216L11.731 10.983C11.796 11 11.873 11.02 11.959 11.043L11.96 11.042Z"/></svg>
